img/logo.svg

<?xml version="1.0" encoding="UTF-8" standalone="no"?><!DOCTYPE svg PUBLIC "-//W3C//DTD SVG 1.1//EN" "http://www.w3.org/Graphics/SVG/1.1/DTD/svg11.dtd"><svg width="100%" height="100%" viewBox="0 0 24 24" version="1.1" xmlns="http://www.w3.org/2000/svg" xmlns:xlink="http://www.w3.org/1999/xlink" xml:space="preserve" xmlns:serif="http://www.serif.com/" style="fill-rule:evenodd;clip-rule:evenodd;"><rect x="0" y="0" width="23.04" height="23.04" style="fill:#fff;"/><clipPath id="_clip1"><rect x="0" y="0" width="23.04" height="23.04"/></clipPath><g clip-path="url(#_clip1)"><g><g><path d="M0,7.274l7.274,-7.274l0,3.637l-3.637,3.637l3.637,3.637l0,3.637l-7.274,-7.274Z" style="fill:#943356;fill-rule:nonzero;"/><path d="M4.676,7.274l2.598,-2.598l0,5.196l-2.598,-2.598Z" style="fill:#943356;fill-rule:nonzero;"/><path d="M15.328,7.274l-7.534,-7.274l0,3.637l3.637,3.637l-3.637,3.637l0,3.637l7.534,-7.274Z" style="fill:#485364;fill-rule:nonzero;"/></g><path d="M-20.603,23.04c0.93,-0.003 1.859,-0.008 2.789,-0.024c0.889,-0.015 1.78,-0.04 2.663,-0.113c0.935,-0.078 1.853,-0.207 2.734,-0.441c0.877,-0.234 1.652,-0.588 2.368,-1.003c0.696,-0.402 1.305,-0.897 1.841,-1.401c0.552,-0.517 1.063,-1.055 1.538,-1.608c0.488,-0.57 0.957,-1.147 1.421,-1.727c0.455,-0.568 0.911,-1.135 1.384,-1.696c0.462,-0.549 0.962,-1.093 1.547,-1.584c0.304,-0.254 0.638,-0.481 1.012,-0.686c0.363,-0.199 0.803,-0.311 1.262,-0.335c0.466,-0.024 0.909,0.133 1.285,0.304c0.384,0.174 0.705,0.418 1.002,0.657c0.612,0.491 1.105,1.05 1.587,1.604c0.468,0.536 0.9,1.087 1.338,1.635c0.462,0.576 0.923,1.153 1.41,1.72c0.472,0.55 0.967,1.093 1.516,1.609c0.563,0.529 1.179,1.026 1.887,1.467c0.697,0.432 1.492,0.769 2.354,1.021c0.829,0.242 1.739,0.374 2.631,0.448c0.917,0.077 1.837,0.109 2.76,0.127c0.912,0.019 1.825,0.023 2.738,0.026c0.047,0 0.093,0 0.139,0" style="fill:url(#_Linear2);fill-rule:nonzero;"/><g><path id="polyline5583" d="M0,23.04c1.605,-0.002 3.21,0 4.815,-0.01c0.966,-0.011 1.942,-0.021 2.89,-0.175c0.763,-0.13 1.491,-0.393 2.064,-0.788c0.736,-0.494 1.282,-1.117 1.761,-1.753c1.458,-1.99 2.395,-4.155 3.779,-6.17c0.459,-0.666 0.972,-1.321 1.652,-1.879c0.491,-0.404 1.092,-0.745 1.783,-0.94c0.786,-0.224 1.635,-0.286 2.471,-0.313c1.474,-0.044 2.949,-0.021 4.424,-0.032c0.504,0 1.009,0 1.514,0" style="fill:none;fill-rule:nonzero;stroke:url(#_Linear3);stroke-width:0.45px;"/><path id="polyline55831" serif:id="polyline5583" d="M0,23.04c1.852,-0.002 3.704,0 5.556,-0.01c1.115,-0.011 2.241,-0.021 3.335,-0.175c0.88,-0.13 1.72,-0.393 2.381,-0.788c0.85,-0.494 1.48,-1.117 2.032,-1.753c1.682,-1.99 2.763,-4.155 4.36,-6.17c0.53,-0.666 1.121,-1.321 1.906,-1.879c0.567,-0.404 1.26,-0.745 2.058,-0.94c0.907,-0.224 1.886,-0.286 2.85,-0.313c1.701,-0.044 3.404,-0.021 5.105,-0.032c0.582,0 1.165,0 1.747,0" style="fill:none;fill-rule:nonzero;stroke:url(#_Linear4);stroke-width:0.45px;"/><path id="polyline55832" serif:id="polyline5583" d="M0,23.04c2.121,-0.002 4.243,0 6.364,-0.01c1.277,-0.011 2.567,-0.021 3.82,-0.175c1.009,-0.13 1.97,-0.393 2.728,-0.788c0.973,-0.494 1.694,-1.117 2.327,-1.753c1.927,-1.99 3.165,-4.155 4.995,-6.17c0.606,-0.666 1.284,-1.321 2.183,-1.879c0.649,-0.404 1.443,-0.745 2.357,-0.94c1.038,-0.224 2.16,-0.286 3.265,-0.313c1.948,-0.044 3.898,-0.021 5.847,-0.032c0.667,0 1.334,0 2.001,0" style="fill:none;fill-rule:nonzero;stroke:url(#_Linear5);stroke-width:0.45px;"/><path id="polyline55833" serif:id="polyline5583" d="M0,23.04c2.413,-0.002 4.826,0 7.239,-0.01c1.453,-0.011 2.921,-0.021 4.346,-0.175c1.147,-0.13 2.241,-0.393 3.103,-0.788c1.107,-0.494 1.928,-1.117 2.648,-1.753c2.192,-1.99 3.6,-4.155 5.681,-6.17c0.69,-0.666 1.461,-1.321 2.483,-1.879c0.74,-0.404 1.642,-0.745 2.682,-0.94c1.181,-0.224 2.458,-0.286 3.714,-0.313c2.216,-0.044 4.435,-0.021 6.652,-0.032c0.759,0 1.517,0 2.276,0" style="fill:none;fill-rule:nonzero;stroke:url(#_Linear6);stroke-width:0.45px;"/><path id="polyline55834" serif:id="polyline5583" d="M0,23.04c2.772,-0.002 5.545,0 8.317,-0.01c1.669,-0.011 3.355,-0.021 4.992,-0.175c1.318,-0.13 2.575,-0.393 3.565,-0.788c1.272,-0.494 2.215,-1.117 3.042,-1.753c2.518,-1.99 4.136,-4.155 6.527,-6.17c0.793,-0.666 1.678,-1.321 2.853,-1.879c0.849,-0.404 1.886,-0.745 3.081,-0.94c1.357,-0.224 2.823,-0.286 4.266,-0.313c2.546,-0.044 5.095,-0.021 7.642,-0.032c0.872,0 1.743,0 2.615,0" style="fill:none;fill-rule:nonzero;stroke:url(#_Linear7);stroke-width:0.45px;"/><path id="polyline55835" serif:id="polyline5583" d="M0,23.04c3.165,-0.002 6.33,0 9.495,-0.01c1.906,-0.011 3.831,-0.021 5.7,-0.175c1.505,-0.13 2.939,-0.393 4.07,-0.788c1.452,-0.494 2.529,-1.117 3.473,-1.753c2.875,-1.99 4.722,-4.155 7.452,-6.17c0.905,-0.666 1.916,-1.321 3.257,-1.879c0.97,-0.404 2.153,-0.745 3.517,-0.94c1.55,-0.224 3.224,-0.286 4.872,-0.313c2.907,-0.044 5.816,-0.021 8.724,-0.032c0.996,0 1.991,0 2.986,0" style="fill:none;fill-rule:nonzero;stroke:url(#_Linear8);stroke-width:0.45px;"/><path id="polyline55836" serif:id="polyline5583" d="M0,23.04c3.681,-0.002 7.363,0 11.044,-0.01c2.217,-0.011 4.455,-0.021 6.63,-0.175c1.75,-0.13 3.418,-0.393 4.734,-0.788c1.688,-0.494 2.941,-1.117 4.039,-1.753c3.344,-1.99 5.493,-4.155 8.668,-6.17c1.052,-0.666 2.228,-1.321 3.788,-1.879c1.128,-0.404 2.504,-0.745 4.091,-0.94c1.802,-0.224 3.749,-0.286 5.666,-0.313c3.381,-0.044 6.765,-0.021 10.148,-0.032c1.157,0 2.315,0 3.472,0" style="fill:none;fill-rule:nonzero;stroke:url(#_Linear9);stroke-width:0.45px;"/><path id="polyline55837" serif:id="polyline5583" d="M0,23.04c1.605,-0.002 3.21,0 4.815,-0.01c0.966,-0.011 1.942,-0.021 2.89,-0.175c0.763,-0.13 1.491,-0.393 2.064,-0.788c0.736,-0.494 1.282,-1.117 1.761,-1.753c1.458,-1.99 2.395,-4.155 3.779,-6.17c0.459,-0.666 0.972,-1.321 1.652,-1.879c0.491,-0.404 1.092,-0.745 1.783,-0.94c0.786,-0.224 1.635,-0.286 2.471,-0.313c1.474,-0.044 2.949,-0.021 4.424,-0.032c0.504,0 1.009,0 1.514,0" style="fill:none;fill-rule:nonzero;stroke:url(#_Linear10);stroke-width:0.45px;"/></g></g></g><defs><linearGradient id="_Linear2" x1="0" y1="0" x2="1" y2="0" gradientUnits="userSpaceOnUse" gradientTransform="matrix(29.16,-14.76,14.76,29.16,-10.62,30.06)"><stop offset="0" style="stop-color:#943356;stop-opacity:1"/><stop offset="0.15" style="stop-color:#70425d;stop-opacity:1"/><stop offset="0.33" style="stop-color:#524f62;stop-opacity:1"/><stop offset="1" style="stop-color:#485364;stop-opacity:1"/></linearGradient><linearGradient id="_Linear3" x1="0" y1="0" x2="1" y2="0" gradientUnits="userSpaceOnUse" gradientTransform="matrix(11.0299,9.54,-9.54,11.0299,12.42,13.5)"><stop offset="0" style="stop-color:#943356;stop-opacity:1"/><stop offset="1" style="stop-color:#485364;stop-opacity:1"/></linearGradient><linearGradient id="_Linear4" x1="0" y1="0" x2="1" y2="0" gradientUnits="userSpaceOnUse" gradientTransform="matrix(11.0299,9.54,-9.54,11.0299,12.42,13.5)"><stop offset="0" style="stop-color:#943356;stop-opacity:1"/><stop offset="1" style="stop-color:#485364;stop-opacity:1"/></linearGradient><linearGradient id="_Linear5" x1="0" y1="0" x2="1" y2="0" gradientUnits="userSpaceOnUse" gradientTransform="matrix(11.0299,9.54,-9.54,11.0299,12.42,13.5)"><stop offset="0" style="stop-color:#943356;stop-opacity:1"/><stop offset="1" style="stop-color:#485364;stop-opacity:1"/></linearGradient><linearGradient id="_Linear6" x1="0" y1="0" x2="1" y2="0" gradientUnits="userSpaceOnUse" gradientTransform="matrix(11.0299,9.54,-9.54,11.0299,12.42,13.5)"><stop offset="0" style="stop-color:#943356;stop-opacity:1"/><stop offset="1" style="stop-color:#485364;stop-opacity:1"/></linearGradient><linearGradient id="_Linear7" x1="0" y1="0" x2="1" y2="0" gradientUnits="userSpaceOnUse" gradientTransform="matrix(11.0299,9.54,-9.54,11.0299,12.42,13.5)"><stop offset="0" style="stop-color:#943356;stop-opacity:1"/><stop offset="1" style="stop-color:#485364;stop-opacity:1"/></linearGradient><linearGradient id="_Linear8" x1="0" y1="0" x2="1" y2="0" gradientUnits="userSpaceOnUse" gradientTransform="matrix(11.0299,9.54,-9.54,11.0299,12.42,13.5)"><stop offset="0" style="stop-color:#943356;stop-opacity:1"/><stop offset="1" style="stop-color:#485364;stop-opacity:1"/></linearGradient><linearGradient id="_Linear9" x1="0" y1="0" x2="1" y2="0" gradientUnits="userSpaceOnUse" gradientTransform="matrix(11.0299,9.54,-9.54,11.0299,12.42,13.5)"><stop offset="0" style="stop-color:#943356;stop-opacity:1"/><stop offset="1" style="stop-color:#485364;stop-opacity:1"/></linearGradient><linearGradient id="_Linear10" x1="0" y1="0" x2="1" y2="0" gradientUnits="userSpaceOnUse" gradientTransform="matrix(11.0299,9.54,-9.54,11.0299,12.42,13.5)"><stop offset="0" style="stop-color:#943356;stop-opacity:1"/><stop offset="1" style="stop-color:#485364;stop-opacity:1"/></linearGradient></defs></svg>

<?xml version="1.0" encoding="UTF-8" standalone="no"?>
<!DOCTYPE svg PUBLIC "-//W3C//DTD SVG 1.1//EN" "http://www.w3.org/Graphics/SVG/1.1/DTD/svg11.dtd">
<svg width="100%" height="100%" viewBox="0 0 24 24" version="1.1" xmlns="http://www.w3.org/2000/svg" xmlns:xlink="http://www.w3.org/1999/xlink" xml:space="preserve" xmlns:serif="http://www.serif.com/" style="fill-rule:evenodd;clip-rule:evenodd;">
    <g transform="matrix(1.04167,0,0,1.04167,-0.00388146,0)">
        <g>
            <g>
                <path d="M0,7.274L7.274,0L7.274,3.637L3.637,7.274L7.274,10.911L7.274,14.548L0,7.274Z" style="fill:rgb(148,51,86);fill-rule:nonzero;"/>
                <path d="M4.676,7.274L7.274,4.676L7.274,9.872L4.676,7.274Z" style="fill:rgb(148,51,86);fill-rule:nonzero;"/>
                <path d="M15.328,7.274L7.794,0L7.794,3.637L11.431,7.274L7.794,10.911L7.794,14.548L15.328,7.274Z" style="fill:rgb(72,83,100);fill-rule:nonzero;"/>
            </g>
            <g transform="matrix(1,0,0,1,-2.13371e-16,0.0858061)">
                <path d="M-20.603,23.04C-19.673,23.037 -18.744,23.032 -17.814,23.016C-16.925,23.001 -16.034,22.976 -15.151,22.903C-14.216,22.825 -13.298,22.696 -12.417,22.462C-11.54,22.228 -10.765,21.874 -10.049,21.459C-9.353,21.057 -8.744,20.562 -8.208,20.058C-7.656,19.541 -7.145,19.003 -6.67,18.45C-6.182,17.88 -5.713,17.303 -5.249,16.723C-4.794,16.155 -4.338,15.588 -3.865,15.027C-3.403,14.478 -2.903,13.934 -2.318,13.443C-2.014,13.189 -1.68,12.962 -1.306,12.757C-0.943,12.558 -0.503,12.446 -0.044,12.422C0.422,12.398 0.865,12.555 1.241,12.726C1.625,12.9 1.946,13.144 2.243,13.383C2.855,13.874 3.348,14.433 3.83,14.987C4.298,15.523 4.73,16.074 5.168,16.622C5.63,17.198 6.091,17.775 6.578,18.342C7.05,18.892 7.545,19.435 8.094,19.951C8.657,20.48 9.273,20.977 9.981,21.418C10.678,21.85 11.473,22.187 12.335,22.439C13.164,22.681 14.074,22.813 14.966,22.887C15.883,22.964 16.803,22.996 17.726,23.014C18.638,23.033 19.551,23.037 20.464,23.04L20.603,23.04" style="fill:rgb(72,83,100);fill-rule:nonzero;"/>
            </g>
            <g>
                <path id="polyline5583" d="M0,23.04C1.605,23.038 3.21,23.04 4.815,23.03C5.781,23.019 6.757,23.009 7.705,22.855C8.468,22.725 9.196,22.462 9.769,22.067C10.505,21.573 11.051,20.95 11.53,20.314C12.988,18.324 13.925,16.159 15.309,14.144C15.768,13.478 16.281,12.823 16.961,12.265C17.452,11.861 18.053,11.52 18.744,11.325C19.53,11.101 20.379,11.039 21.215,11.012C22.689,10.968 24.164,10.991 25.639,10.98L27.153,10.98" style="fill:none;fill-rule:nonzero;stroke:rgb(148,51,86);stroke-width:0.45px;"/>
                <path id="polyline55831" serif:id="polyline5583" d="M0,23.04C1.852,23.038 3.704,23.04 5.556,23.03C6.671,23.019 7.797,23.009 8.891,22.855C9.771,22.725 10.611,22.462 11.272,22.067C12.122,21.573 12.752,20.95 13.304,20.314C14.986,18.324 16.067,16.159 17.664,14.144C18.194,13.478 18.785,12.823 19.57,12.265C20.137,11.861 20.83,11.52 21.628,11.325C22.535,11.101 23.514,11.039 24.478,11.012C26.179,10.968 27.882,10.991 29.583,10.98L31.33,10.98" style="fill:none;fill-rule:nonzero;stroke:rgb(148,51,86);stroke-width:0.45px;"/>
                <path id="polyline55832" serif:id="polyline5583" d="M0,23.04C2.121,23.038 4.243,23.04 6.364,23.03C7.641,23.019 8.931,23.009 10.184,22.855C11.193,22.725 12.154,22.462 12.912,22.067C13.885,21.573 14.606,20.95 15.239,20.314C17.166,18.324 18.404,16.159 20.234,14.144C20.84,13.478 21.518,12.823 22.417,12.265C23.066,11.861 23.86,11.52 24.774,11.325C25.812,11.101 26.934,11.039 28.039,11.012C29.987,10.968 31.937,10.991 33.886,10.98L35.887,10.98" style="fill:none;fill-rule:nonzero;stroke:rgb(148,51,86);stroke-width:0.45px;"/>
                <path id="polyline55833" serif:id="polyline5583" d="M0,23.04C2.413,23.038 4.826,23.04 7.239,23.03C8.692,23.019 10.16,23.009 11.585,22.855C12.732,22.725 13.826,22.462 14.688,22.067C15.795,21.573 16.616,20.95 17.336,20.314C19.528,18.324 20.936,16.159 23.017,14.144C23.707,13.478 24.478,12.823 25.5,12.265C26.24,11.861 27.142,11.52 28.182,11.325C29.363,11.101 30.64,11.039 31.896,11.012C34.112,10.968 36.331,10.991 38.548,10.98L40.824,10.98" style="fill:none;fill-rule:nonzero;stroke:rgb(148,51,86);stroke-width:0.45px;"/>
                <path id="polyline55834" serif:id="polyline5583" d="M0,23.04C2.772,23.038 5.545,23.04 8.317,23.03C9.986,23.019 11.672,23.009 13.309,22.855C14.627,22.725 15.884,22.462 16.874,22.067C18.146,21.573 19.089,20.95 19.916,20.314C22.434,18.324 24.052,16.159 26.443,14.144C27.236,13.478 28.121,12.823 29.296,12.265C30.145,11.861 31.182,11.52 32.377,11.325C33.734,11.101 35.2,11.039 36.643,11.012C39.189,10.968 41.738,10.991 44.285,10.98L46.9,10.98" style="fill:none;fill-rule:nonzero;stroke:rgb(148,51,86);stroke-width:0.45px;"/>
                <path id="polyline55835" serif:id="polyline5583" d="M0,23.04C3.165,23.038 6.33,23.04 9.495,23.03C11.401,23.019 13.326,23.009 15.195,22.855C16.7,22.725 18.134,22.462 19.265,22.067C20.717,21.573 21.794,20.95 22.738,20.314C25.613,18.324 27.46,16.159 30.19,14.144C31.095,13.478 32.106,12.823 33.447,12.265C34.417,11.861 35.6,11.52 36.964,11.325C38.514,11.101 40.188,11.039 41.836,11.012C44.743,10.968 47.652,10.991 50.56,10.98L53.546,10.98" style="fill:none;fill-rule:nonzero;stroke:rgb(148,51,86);stroke-width:0.45px;"/>
                <path id="polyline55836" serif:id="polyline5583" d="M0,23.04C3.681,23.038 7.363,23.04 11.044,23.03C13.261,23.019 15.499,23.009 17.674,22.855C19.424,22.725 21.092,22.462 22.408,22.067C24.096,21.573 25.349,20.95 26.447,20.314C29.791,18.324 31.94,16.159 35.115,14.144C36.167,13.478 37.343,12.823 38.903,12.265C40.031,11.861 41.407,11.52 42.994,11.325C44.796,11.101 46.743,11.039 48.66,11.012C52.041,10.968 55.425,10.991 58.808,10.98L62.28,10.98" style="fill:none;fill-rule:nonzero;stroke:rgb(148,51,86);stroke-width:0.45px;"/>
                <path id="polyline55837" serif:id="polyline5583" d="M0,23.04C1.605,23.038 3.21,23.04 4.815,23.03C5.781,23.019 6.757,23.009 7.705,22.855C8.468,22.725 9.196,22.462 9.769,22.067C10.505,21.573 11.051,20.95 11.53,20.314C12.988,18.324 13.925,16.159 15.309,14.144C15.768,13.478 16.281,12.823 16.961,12.265C17.452,11.861 18.053,11.52 18.744,11.325C19.53,11.101 20.379,11.039 21.215,11.012C22.689,10.968 24.164,10.991 25.639,10.98L27.153,10.98" style="fill:none;fill-rule:nonzero;stroke:rgb(148,51,86);stroke-width:0.45px;"/>
            </g>
        </g>
    </g>
</svg>
